Gruvbox-Plus-Dark/actions/24/xfpm-brightness-lcd.svg

<svg xmlns="http://www.w3.org/2000/svg" width="24" height="24" viewBox="0 0 24 24">
 <defs>
  <style id="current-color-scheme" type="text/css">
   .ColorScheme-Text { color:#ebdbb2; } .ColorScheme-Highlight { color:#458588; }
  </style>
 </defs>
 <path style="fill:currentColor" class="ColorScheme-Text" d="M 11.996094 4.71875 L 11.998047 4.7207031 L 12 4.71875 L 11.996094 4.71875 z M 11.998047 4.7207031 C 11.230785 5.4778926 10.483059 6.2561352 9.703125 7 L 7 7 L 7 9.703125 C 6.2554 10.483725 5.47665 11.232 4.71875 12 C 5.47665 12.76805 6.25545 13.516175 7 14.296875 L 7 17 L 9.703125 17 C 10.483725 17.7446 11.232 18.52335 12 19.28125 C 12.76805 18.52335 13.516175 17.74455 14.296875 17 L 17 17 L 17 14.296875 C 17.7446 13.516275 18.52335 12.768 19.28125 12 C 18.52335 11.23195 17.74455 10.483825 17 9.703125 L 17 7 L 14.296875 7 C 13.512544 6.2561347 12.767348 5.4780918 11.998047 4.7207031 z M 12 7.5 C 14.4853 7.5 16.5 9.5147 16.5 12 C 16.5 14.4853 14.4853 16.5 12 16.5 C 9.5147 16.5 7.5 14.4853 7.5 12 C 7.5 9.5147 9.5147 7.5 12 7.5 z M 12 9 C 10.34315 9 9 10.34315 9 12 C 9 13.65685 10.34315 15 12 15 L 12 9 z"/>
</svg>

<svg width="24" height="24" version="1.1" viewBox="0 0 24 24" xmlns="http://www.w3.org/2000/svg">
  <defs>
    <style type="text/css">.ColorScheme-Text { color:#ebdbb2; } .ColorScheme-Highlight { color:#458588; }</style>
  </defs>
  <path class="ColorScheme-Text" d="m11.996 4.7188 0.001953 0.0019531 0.001953-0.0019531h-0.003906zm0.001953 0.0019531c-0.76726 0.75719-1.515 1.5354-2.2949 2.2793h-2.7031v2.7031c-0.7446 0.7806-1.5234 1.5289-2.2812 2.2969 0.7579 0.76805 1.5367 1.5162 2.2812 2.2969v2.7031h2.7031c0.7806 0.7446 1.5289 1.5234 2.2969 2.2812 0.76805-0.7579 1.5162-1.5367 2.2969-2.2812h2.7031v-2.7031c0.7446-0.7806 1.5234-1.5289 2.2812-2.2969-0.7579-0.76805-1.5367-1.5162-2.2812-2.2969v-2.7031h-2.7031c-0.78433-0.74387-1.5295-1.5219-2.2988-2.2793zm0.001953 2.7793c2.4853 0 4.5 2.0147 4.5 4.5s-2.0147 4.5-4.5 4.5-4.5-2.0147-4.5-4.5 2.0147-4.5 4.5-4.5zm0 1.5c-1.6568 0-3 1.3432-3 3s1.3432 3 3 3v-6z" fill="currentColor"/>
</svg>
